X:1
T:The Tythe Pig
M:4/4
L:1/8
K:F
 c| cB AG FG AB| GE FD C3 c| cB AG FG AA| GE FD C3| c| cc cc dc cc|\
 dc cA G3 G| AB cA Bc d3/2 d/2| cB AG F3| C| DE FDE-G z G| Ac c3/2 d/2 c3 c|\
 dc BA AF FF| AG FE F3||

